X: 65
T:Ty Gwyn
T:The White House
M:4/4
L:1/8
Q:150
S:Band y Brodyr
R:March
A:Wales
Z:brian_martin12345@yahoo.com
K:G
G2G>A BGAB|E2A>G GFED|G2G>A BGAB|cBAG AGFE|
D2G>A BGAB|E2A>G GFED|G2BG EFGE|DAFDG4:||
A2A>^G ABcA|B2B>^A BcdB|c2ec BdBG|AGFED4|
D2EF G>ABG|E2FG A>BcA|B2ABc2BA|G2F2G4:||
